src/images/webHero.svg

<svg width="94" height="39" viewBox="0 0 94 39" fill="none" xmlns="http://www.w3.org/2000/svg">
<path d="M21.5401 14.3821L17.1798 27.7971H13.8667L10.9345 18.7132L7.90701 27.7971H4.61298L0.233643 14.3821H3.43246L6.44089 23.8109L9.58259 14.3821H12.4387L15.4852 23.8876L18.5888 14.3821H21.5401Z" fill="#FFD22E"/>
<path d="M32.3261 22.6803C32.3261 22.7187 32.3071 22.987 32.2689 23.4852H24.5195C24.659 24.124 24.9891 24.6287 25.5095 24.9992C26.0299 25.3697 26.6774 25.555 27.4517 25.555C27.9849 25.555 28.4545 25.4783 28.8607 25.325C29.2795 25.1589 29.6667 24.9034 30.0222 24.5584L31.6026 26.2832C30.6378 27.3948 29.2288 27.9505 27.3755 27.9505C26.2203 27.9505 25.1984 27.7269 24.31 27.2798C23.4213 26.8198 22.7359 26.1874 22.2536 25.3825C21.7712 24.5776 21.53 23.6641 21.53 22.642C21.53 21.6327 21.7649 20.7256 22.2345 19.9207C22.7168 19.103 23.3706 18.4706 24.1958 18.0234C25.0335 17.5635 25.9664 17.3335 26.9946 17.3335C27.9974 17.3335 28.9051 17.5507 29.7175 17.9851C30.53 18.4195 31.1645 19.0455 31.6216 19.8632C32.0913 20.6681 32.3261 21.6071 32.3261 22.6803ZM27.0137 19.5949C26.341 19.5949 25.776 19.7865 25.3191 20.1698C24.8622 20.5531 24.5829 21.0769 24.4813 21.7413H29.5271C29.4255 21.0897 29.1463 20.5723 28.6894 20.189C28.2323 19.7929 27.6738 19.5949 27.0137 19.5949Z" fill="#FFD22E"/>
<path d="M40.3592 17.3336C41.3114 17.3336 42.1745 17.5572 42.9487 18.0043C43.7358 18.4387 44.3515 19.0584 44.7958 19.8633C45.24 20.6554 45.4622 21.5817 45.4622 22.6421C45.4622 23.7025 45.24 24.6352 44.7958 25.4401C44.3515 26.2322 43.7358 26.8519 42.9487 27.299C42.1745 27.7334 41.3114 27.9506 40.3592 27.9506C38.9502 27.9506 37.8776 27.5035 37.1414 26.6091V27.7973H34.3043V13.5774H37.2747V18.5793C38.0236 17.7488 39.0518 17.3336 40.3592 17.3336ZM39.8451 25.4976C40.6068 25.4976 41.2288 25.2421 41.7111 24.731C42.2063 24.2072 42.4537 23.5109 42.4537 22.6421C42.4537 21.7733 42.2063 21.0834 41.7111 20.5724C41.2288 20.0485 40.6068 19.7866 39.8451 19.7866C39.0836 19.7866 38.4552 20.0485 37.9601 20.5724C37.4779 21.0834 37.2366 21.7733 37.2366 22.6421C37.2366 23.5109 37.4779 24.2072 37.9601 24.731C38.4552 25.2421 39.0836 25.4976 39.8451 25.4976Z" fill="#FFD22E"/>
<path d="M59.8832 14.3821V27.7971H56.7985V22.2969H50.7436V27.7971H47.6591V14.3821H50.7436V19.6714H56.7985V14.3821H59.8832Z" fill="#FFD22E"/>
<path d="M72.859 22.6803C72.859 22.7187 72.84 22.987 72.802 23.4852H65.0523C65.1921 24.124 65.522 24.6287 66.0426 24.9992C66.563 25.3697 67.2103 25.555 67.9846 25.555C68.5177 25.555 68.9874 25.4783 69.3936 25.325C69.8126 25.1589 70.1997 24.9034 70.5552 24.5584L72.1354 26.2832C71.1707 27.3948 69.7619 27.9505 67.9085 27.9505C66.7534 27.9505 65.7315 27.7269 64.8431 27.2798C63.9544 26.8198 63.2689 26.1874 62.7865 25.3825C62.3042 24.5776 62.0631 23.6641 62.0631 22.642C62.0631 21.6327 62.298 20.7256 62.7676 19.9207C63.2499 19.103 63.9037 18.4706 64.7287 18.0234C65.5664 17.5635 66.4995 17.3335 67.5277 17.3335C68.5305 17.3335 69.438 17.5507 70.2504 17.9851C71.0628 18.4195 71.6976 19.0455 72.1545 19.8632C72.6242 20.6681 72.859 21.6071 72.859 22.6803ZM67.5467 19.5949C66.8741 19.5949 66.3091 19.7865 65.8522 20.1698C65.3951 20.5531 65.1158 21.0769 65.0144 21.7413H70.06C69.9586 21.0897 69.6794 20.5723 69.2223 20.189C68.7654 19.7929 68.2068 19.5949 67.5467 19.5949Z" fill="#FFD22E"/>
<path d="M77.6764 18.8475C78.0319 18.3492 78.5079 17.9723 79.1045 17.7168C79.7139 17.4613 80.4119 17.3335 81.199 17.3335V20.0932C80.869 20.0676 80.6468 20.0548 80.5326 20.0548C79.6821 20.0548 79.0157 20.2976 78.5334 20.7831C78.051 21.2558 77.8098 21.9713 77.8098 22.9295V27.7972H74.8395V17.4868H77.6764V18.8475Z" fill="#FFD22E"/>
<path d="M87.7439 27.9505C86.6648 27.9505 85.6938 27.7269 84.8307 27.2798C83.9802 26.8198 83.3138 26.1874 82.8314 25.3825C82.3491 24.5776 82.1078 23.6641 82.1078 22.642C82.1078 21.6199 82.3491 20.7064 82.8314 19.9015C83.3138 19.0966 83.9802 18.4706 84.8307 18.0234C85.6938 17.5635 86.6648 17.3335 87.7439 17.3335C88.8228 17.3335 89.7875 17.5635 90.638 18.0234C91.4886 18.4706 92.155 19.0966 92.6374 19.9015C93.1197 20.7064 93.3608 21.6199 93.3608 22.642C93.3608 23.6641 93.1197 24.5776 92.6374 25.3825C92.155 26.1874 91.4886 26.8198 90.638 27.2798C89.7875 27.7269 88.8228 27.9505 87.7439 27.9505ZM87.7439 25.4975C88.5054 25.4975 89.1276 25.242 89.6099 24.7309C90.1049 24.2071 90.3525 23.5108 90.3525 22.642C90.3525 21.7732 90.1049 21.0833 89.6099 20.5723C89.1276 20.0484 88.5054 19.7865 87.7439 19.7865C86.9822 19.7865 86.3539 20.0484 85.8589 20.5723C85.3639 21.0833 85.1163 21.7732 85.1163 22.642C85.1163 23.5108 85.3639 24.2071 85.8589 24.7309C86.3539 25.242 86.9822 25.4975 87.7439 25.4975Z" fill="#FFD22E"/>
<path d="M60.3972 38.5633C59.8241 38.5633 59.2692 38.4757 58.7324 38.3004C58.2031 38.1181 57.7858 37.8844 57.4812 37.5996L57.8838 36.7454C58.1739 37.0083 58.5439 37.2236 58.9935 37.3916C59.4506 37.5523 59.9184 37.6326 60.3972 37.6326C61.0282 37.6326 61.4998 37.5266 61.8116 37.3149C62.1235 37.0959 62.2796 36.8075 62.2796 36.4498C62.2796 36.1871 62.1925 35.9752 62.0184 35.8147C61.8515 35.6468 61.6412 35.5191 61.3873 35.4314C61.1406 35.3438 60.789 35.2452 60.3319 35.1358C59.7589 34.9969 59.2947 34.8583 58.9392 34.7195C58.591 34.5809 58.29 34.3692 58.0361 34.0844C57.7894 33.7924 57.6663 33.4019 57.6663 32.9125C57.6663 32.5037 57.7713 32.135 57.9818 31.8066C58.1994 31.478 58.5258 31.2152 58.961 31.0181C59.3961 30.821 59.9365 30.7224 60.5821 30.7224C61.0318 30.7224 61.4744 30.7808 61.9096 30.8976C62.3448 31.0145 62.7184 31.1824 63.0302 31.4014L62.6711 32.2775C62.352 32.0731 62.0112 31.9197 61.6484 31.8175C61.2857 31.708 60.9304 31.6533 60.5821 31.6533C59.9657 31.6533 59.5013 31.7664 59.1895 31.9927C58.8849 32.219 58.7324 32.511 58.7324 32.8688C58.7324 33.1317 58.8195 33.347 58.9935 33.515C59.1678 33.6755 59.3816 33.8034 59.6355 33.8983C59.8967 33.9859 60.2486 34.0808 60.691 34.183C61.264 34.3216 61.7245 34.4605 62.0728 34.5991C62.421 34.7377 62.7184 34.9496 62.965 35.2343C63.2187 35.5191 63.3457 35.9023 63.3457 36.3842C63.3457 36.7857 63.237 37.1544 63.0194 37.4901C62.8017 37.8186 62.4717 38.0815 62.0293 38.2786C61.5867 38.4684 61.0427 38.5633 60.3972 38.5633Z" fill="black"/>
<path d="M67.2958 38.5418C66.7081 38.5418 66.1824 38.4141 65.718 38.1585C65.2611 37.9029 64.902 37.5526 64.6409 37.1072C64.3797 36.6545 64.2491 36.1435 64.2491 35.574C64.2491 35.0045 64.3797 34.4972 64.6409 34.0518C64.902 33.5993 65.2611 33.2488 65.718 33.0005C66.1824 32.7451 66.7081 32.6172 67.2958 32.6172C67.818 32.6172 68.2822 32.7232 68.6884 32.9349C69.1018 33.1466 69.4209 33.4532 69.6459 33.8547L68.8516 34.3695C68.6703 34.0921 68.4454 33.884 68.177 33.7452C67.9086 33.6066 67.6112 33.5372 67.2849 33.5372C66.9077 33.5372 66.5667 33.6211 66.262 33.7891C65.9647 33.9569 65.7289 34.1979 65.5549 34.5118C65.3881 34.8184 65.3046 35.1725 65.3046 35.574C65.3046 35.9828 65.3881 36.3442 65.5549 36.6581C65.7289 36.9649 65.9647 37.2021 66.262 37.3701C66.5667 37.538 66.9077 37.6218 67.2849 37.6218C67.6112 37.6218 67.9086 37.5526 68.177 37.4138C68.4454 37.2751 68.6703 37.0671 68.8516 36.7897L69.6459 37.2934C69.4209 37.6949 69.1018 38.0051 68.6884 38.2243C68.2822 38.4359 67.818 38.5418 67.2958 38.5418Z" fill="black"/>
<path d="M74.0036 32.6164C74.7362 32.6164 75.3166 32.8319 75.7445 33.2626C76.1797 33.6861 76.3974 34.3102 76.3974 35.1353V38.4752H75.3528V35.2557C75.3528 34.6935 75.2186 34.2701 74.9502 33.9854C74.6819 33.7007 74.2974 33.5582 73.7968 33.5582C73.2311 33.5582 72.785 33.7262 72.4587 34.0619C72.1322 34.3906 71.969 34.8651 71.969 35.4856V38.4752H70.9244V30.3496H71.969V33.4926C72.1867 33.2152 72.4696 32.9997 72.8176 32.8465C73.1731 32.6931 73.5685 32.6164 74.0036 32.6164Z" fill="black"/>
<path d="M80.8323 38.5418C80.2593 38.5418 79.7443 38.4141 79.2874 38.1585C78.8303 37.9029 78.4713 37.5526 78.2102 37.1072C77.9563 36.6545 77.8293 36.1435 77.8293 35.574C77.8293 35.0045 77.9563 34.4972 78.2102 34.0518C78.4713 33.5993 78.8303 33.2488 79.2874 33.0005C79.7443 32.7451 80.2593 32.6172 80.8323 32.6172C81.4053 32.6172 81.9167 32.7451 82.3664 33.0005C82.8235 33.2488 83.1788 33.5993 83.4327 34.0518C83.6938 34.4972 83.8244 35.0045 83.8244 35.574C83.8244 36.1435 83.6938 36.6545 83.4327 37.1072C83.1788 37.5526 82.8235 37.9029 82.3664 38.1585C81.9167 38.4141 81.4053 38.5418 80.8323 38.5418ZM80.8323 37.6218C81.2023 37.6218 81.5322 37.538 81.8224 37.3701C82.1199 37.1948 82.3519 36.9538 82.5187 36.6472C82.6857 36.3333 82.769 35.9755 82.769 35.574C82.769 35.1725 82.6857 34.8184 82.5187 34.5118C82.3519 34.1979 82.1199 33.9569 81.8224 33.7891C81.5322 33.6211 81.2023 33.5372 80.8323 33.5372C80.4623 33.5372 80.1287 33.6211 79.8314 33.7891C79.5413 33.9569 79.3091 34.1979 79.1351 34.5118C78.9681 34.8184 78.8848 35.1725 78.8848 35.574C78.8848 35.9755 78.9681 36.3333 79.1351 36.6472C79.3091 36.9538 79.5413 37.1948 79.8314 37.3701C80.1287 37.538 80.4623 37.6218 80.8323 37.6218Z" fill="black"/>
<path d="M87.7364 38.5418C87.1632 38.5418 86.6484 38.4141 86.1913 38.1585C85.7344 37.9029 85.3753 37.5526 85.1141 37.1072C84.8602 36.6545 84.7333 36.1435 84.7333 35.574C84.7333 35.0045 84.8602 34.4972 85.1141 34.0518C85.3753 33.5993 85.7344 33.2488 86.1913 33.0005C86.6484 32.7451 87.1632 32.6172 87.7364 32.6172C88.3094 32.6172 88.8208 32.7451 89.2705 33.0005C89.7274 33.2488 90.0829 33.5993 90.3368 34.0518C90.598 34.4972 90.7285 35.0045 90.7285 35.574C90.7285 36.1435 90.598 36.6545 90.3368 37.1072C90.0829 37.5526 89.7274 37.9029 89.2705 38.1585C88.8208 38.4141 88.3094 38.5418 87.7364 38.5418ZM87.7364 37.6218C88.1062 37.6218 88.4364 37.538 88.7265 37.3701C89.0238 37.1948 89.256 36.9538 89.4228 36.6472C89.5896 36.3333 89.6731 35.9755 89.6731 35.574C89.6731 35.1725 89.5896 34.8184 89.4228 34.5118C89.256 34.1979 89.0238 33.9569 88.7265 33.7891C88.4364 33.6211 88.1062 33.5372 87.7364 33.5372C87.3664 33.5372 87.0327 33.6211 86.7353 33.7891C86.4452 33.9569 86.213 34.1979 86.039 34.5118C85.8722 34.8184 85.7887 35.1725 85.7887 35.574C85.7887 35.9755 85.8722 36.3333 86.039 36.6472C86.213 36.9538 86.4452 37.1948 86.7353 37.3701C87.0327 37.538 87.3664 37.6218 87.7364 37.6218Z" fill="black"/>
<path d="M92.1755 30.3496H93.2201V38.4752H92.1755V30.3496Z" fill="black"/>
<path d="M8.09763 0.921696H5.48254V6.96314H6.88071V5.29743H8.09763C9.71156 5.29743 10.7213 4.46026 10.7213 3.11388C10.7213 1.75887 9.71156 0.921696 8.09763 0.921696ZM8.01995 4.15819H6.88071V2.06094H8.01995C8.87439 2.06094 9.30592 2.44932 9.30592 3.11388C9.30592 3.76981 8.87439 4.15819 8.01995 4.15819Z" fill="black"/>
<path d="M15.9663 6.96314H17.4335L14.7321 0.921696H13.3512L10.6584 6.96314H12.0911L12.6262 5.66855H15.4312L15.9663 6.96314ZM13.075 4.60698L14.033 2.29397L14.991 4.60698H13.075Z" fill="black"/>
<path d="M21.6696 3.81296C22.2047 3.57993 22.5413 3.11388 22.5413 2.527C22.5413 1.4309 21.3331 0.792236 19.9349 0.792236C19.2444 0.792236 18.5195 0.947588 17.8635 1.28418L18.2864 2.37164C18.8043 2.0782 19.3998 1.94011 19.909 1.94011C20.5908 1.94011 21.1259 2.19903 21.1259 2.69098C21.1259 3.08799 20.798 3.33828 20.2283 3.33828H18.8561V4.39121H20.3319C20.9619 4.39121 21.3762 4.61561 21.3762 5.07303C21.3762 5.63403 20.7289 5.92747 19.9349 5.92747C19.348 5.92747 18.6748 5.77212 18.1225 5.43552L17.6909 6.43668C18.4418 6.86821 19.2962 7.06671 20.0989 7.06671C21.5488 7.06671 22.7916 6.41078 22.7916 5.27154C22.7916 4.58972 22.3687 4.05462 21.6696 3.81296Z" fill="black"/>
<path d="M26.5136 0.921696H23.8985V6.96314H25.2967V5.29743H26.5136C28.1275 5.29743 29.1373 4.46026 29.1373 3.11388C29.1373 1.75887 28.1275 0.921696 26.5136 0.921696ZM26.4359 4.15819H25.2967V2.06094H26.4359C27.2904 2.06094 27.7219 2.44932 27.7219 3.11388C27.7219 3.76981 27.2904 4.15819 26.4359 4.15819Z" fill="black"/>
<path d="M34.3822 6.96314H35.8495L33.1481 0.921696H31.7672L29.0744 6.96314H30.5071L31.0422 5.66855H33.8471L34.3822 6.96314ZM31.491 4.60698L32.449 2.29397L33.407 4.60698H31.491Z" fill="black"/>
<path d="M36.6506 6.96314H39.516C41.0695 6.96314 41.9585 6.26406 41.9585 5.05577C41.9585 3.89927 41.1731 3.27786 39.7145 3.27786H38.0402V2.03505H41.5269V0.921696H36.6506V6.96314ZM38.0402 5.92747V4.30491H39.4383C40.1719 4.30491 40.543 4.56383 40.543 5.09893C40.543 5.64266 40.1547 5.92747 39.4383 5.92747H38.0402Z" fill="black"/>
<path d="M45.9051 7.06671C47.8038 7.06671 49.2106 5.74622 49.2106 3.94242C49.2106 2.13862 47.8038 0.818128 45.9051 0.818128C43.9977 0.818128 42.5996 2.14725 42.5996 3.94242C42.5996 5.73759 43.9977 7.06671 45.9051 7.06671ZM45.9051 5.87568C44.8263 5.87568 44.015 5.0903 44.015 3.94242C44.015 2.79455 44.8263 2.00916 45.9051 2.00916C46.9839 2.00916 47.7952 2.79455 47.7952 3.94242C47.7952 5.0903 46.9839 5.87568 45.9051 5.87568Z" fill="black"/>
<path d="M54.8208 0.921696H49.582V2.06094H51.5066V6.96314H52.8876V2.06094H54.8208V0.921696Z" fill="black"/>
<path d="M60.0213 6.96314H61.4885L58.7871 0.921696H57.4062L54.7135 6.96314H56.1462L56.6813 5.66855H59.4862L60.0213 6.96314ZM57.1301 4.60698L58.0881 2.29397L59.0461 4.60698H57.1301Z" fill="black"/>
<path d="M66.4324 0.921696V3.30375H63.6879V0.921696H62.2897V6.96314H63.6879V4.48615H66.4324V6.96314H67.8306V0.921696H66.4324Z" fill="black"/>
<path d="M72.2269 7.06671C74.1256 7.06671 75.5324 5.74622 75.5324 3.94242C75.5324 2.13862 74.1256 0.818128 72.2269 0.818128C70.3195 0.818128 68.9213 2.14725 68.9213 3.94242C68.9213 5.73759 70.3195 7.06671 72.2269 7.06671ZM72.2269 5.87568C71.148 5.87568 70.3368 5.0903 70.3368 3.94242C70.3368 2.79455 71.148 2.00916 72.2269 2.00916C73.3057 2.00916 74.117 2.79455 74.117 3.94242C74.117 5.0903 73.3057 5.87568 72.2269 5.87568Z" fill="black"/>
<path d="M83.2396 3.81296C83.7747 3.55404 84.094 3.09662 84.094 2.48384C84.094 1.48269 83.2655 0.921696 81.8673 0.921696H79.0537V6.96314H82.0313C83.5589 6.96314 84.3788 6.31585 84.3788 5.26291C84.3788 4.5293 83.9732 4.02873 83.2396 3.81296ZM80.4432 1.95737H81.7465C82.3506 1.95737 82.6699 2.21629 82.6699 2.69098C82.6699 3.17429 82.3506 3.42458 81.7465 3.42458H80.4432V1.95737ZM81.9795 5.92747H80.4432V4.39984H81.9795C82.6268 4.39984 82.9634 4.6415 82.9634 5.15071C82.9634 5.67718 82.6268 5.92747 81.9795 5.92747Z" fill="black"/>
</svg>

<svg width="94" height="39" fill="none" xmlns="http://www.w3.org/2000/svg"><path d="M21.54 14.382l-4.36 13.415h-3.313l-2.933-9.084-3.027 9.084H4.613L.233 14.382h3.2l3.008 9.429 3.142-9.429h2.856l3.046 9.506 3.104-9.506h2.951zM32.326 22.68c0 .039-.019.307-.057.805h-7.75c.14.639.47 1.144.99 1.514.52.37 1.168.556 1.943.556.533 0 1.002-.077 1.409-.23a3.538 3.538 0 001.161-.767l1.58 1.725c-.964 1.112-2.373 1.668-4.227 1.668-1.155 0-2.177-.224-3.065-.671-.889-.46-1.574-1.093-2.056-1.898-.483-.804-.724-1.718-.724-2.74 0-1.01.235-1.916.704-2.721a5.013 5.013 0 011.962-1.898c.837-.46 1.77-.69 2.799-.69 1.002 0 1.91.218 2.723.652a4.661 4.661 0 011.904 1.878c.47.805.704 1.744.704 2.817zm-5.312-3.085c-.673 0-1.238.192-1.695.575-.457.383-.736.907-.838 1.571h5.046c-.102-.651-.38-1.169-.838-1.552-.457-.396-1.015-.594-1.675-.594zM40.36 17.334c.951 0 1.815.223 2.589.67a4.634 4.634 0 011.847 1.86c.444.791.666 1.718.666 2.778s-.222 1.993-.666 2.798a4.798 4.798 0 01-1.847 1.859c-.774.434-1.638.652-2.59.652-1.409 0-2.481-.448-3.218-1.342v1.188h-2.837v-14.22h2.97v5.002c.75-.83 1.778-1.245 3.085-1.245zm-.515 8.164c.762 0 1.384-.256 1.866-.767.495-.524.743-1.22.743-2.089s-.248-1.559-.743-2.07c-.482-.523-1.104-.785-1.866-.785-.761 0-1.39.262-1.885.785-.482.511-.723 1.201-.723 2.07 0 .869.24 1.565.723 2.089.495.511 1.124.767 1.885.767zM59.883 14.382v13.415h-3.085v-5.5h-6.054v5.5h-3.085V14.382h3.085v5.29h6.054v-5.29h3.085zM72.859 22.68c0 .039-.019.307-.057.805h-7.75c.14.639.47 1.144.99 1.514.521.37 1.168.556 1.943.556.533 0 1.002-.077 1.409-.23a3.536 3.536 0 001.161-.767l1.58 1.725c-.964 1.112-2.373 1.668-4.227 1.668-1.155 0-2.177-.224-3.065-.671-.889-.46-1.574-1.093-2.057-1.898-.482-.804-.723-1.718-.723-2.74 0-1.01.235-1.916.705-2.721a5.013 5.013 0 011.96-1.898c.838-.46 1.772-.69 2.8-.69 1.002 0 1.91.218 2.722.652a4.66 4.66 0 011.904 1.878c.47.805.705 1.744.705 2.817zm-5.312-3.085c-.673 0-1.238.192-1.695.575-.457.383-.736.907-.838 1.571h5.046c-.101-.651-.38-1.169-.838-1.552-.457-.396-1.015-.594-1.675-.594zM77.676 18.848a3.316 3.316 0 011.428-1.131c.61-.256 1.308-.383 2.095-.383v2.76c-.33-.026-.552-.04-.666-.04-.85 0-1.517.244-2 .73-.482.472-.723 1.187-.723 2.146v4.867h-2.97v-10.31h2.836v1.36zM87.744 27.95c-1.08 0-2.05-.223-2.913-.67a5.123 5.123 0 01-2-1.898c-.482-.804-.723-1.718-.723-2.74 0-1.022.241-1.936.723-2.74a4.988 4.988 0 012-1.879c.863-.46 1.834-.69 2.913-.69 1.079 0 2.043.23 2.894.69a4.987 4.987 0 012 1.878c.482.805.723 1.719.723 2.741s-.241 1.936-.724 2.74a5.122 5.122 0 01-1.999 1.898c-.85.447-1.815.67-2.894.67zm0-2.453c.761 0 1.384-.255 1.866-.766.495-.524.743-1.22.743-2.089s-.248-1.559-.743-2.07c-.482-.524-1.105-.785-1.866-.785-.762 0-1.39.261-1.885.785-.495.511-.743 1.201-.743 2.07 0 .869.248 1.565.743 2.089.495.511 1.123.766 1.885.766z" fill="#FFD22E"/><path d="M60.397 38.563a5.329 5.329 0 01-1.665-.263c-.529-.182-.946-.416-1.25-.7l.402-.855c.29.263.66.479 1.11.647.457.16.924.24 1.403.24.631 0 1.103-.105 1.415-.317.312-.22.468-.508.468-.865a.823.823 0 00-.262-.635 1.618 1.618 0 00-.63-.384 10.978 10.978 0 00-1.056-.295 11.205 11.205 0 01-1.393-.417 2.37 2.37 0 01-.903-.635c-.247-.292-.37-.682-.37-1.172 0-.408.105-.777.316-1.105.217-.329.544-.592.979-.789.435-.197.976-.296 1.621-.296a5.1 5.1 0 011.328.176c.435.117.808.284 1.12.503l-.359.877a3.793 3.793 0 00-1.023-.46 3.677 3.677 0 00-1.066-.165c-.616 0-1.08.113-1.392.34-.305.226-.458.518-.458.876 0 .263.087.478.261.646.175.16.389.288.642.383.262.088.614.183 1.056.285.573.139 1.033.278 1.382.416.348.139.645.35.892.635.254.285.38.668.38 1.15 0 .402-.108.77-.326 1.106-.217.329-.547.591-.99.789-.442.19-.986.284-1.632.284zM67.296 38.542a3.217 3.217 0 01-1.578-.384 2.821 2.821 0 01-1.077-1.05 3.012 3.012 0 01-.392-1.534c0-.57.13-1.077.392-1.522.261-.453.62-.803 1.077-1.051.464-.256.99-.384 1.578-.384.522 0 .986.106 1.392.318.414.212.733.518.958.92l-.794.515a1.78 1.78 0 00-.675-.625 1.915 1.915 0 00-.892-.208c-.377 0-.718.084-1.023.252a1.826 1.826 0 00-.707.723c-.167.306-.25.66-.25 1.062 0 .409.083.77.25 1.084.174.307.41.544.707.712.305.168.646.252 1.023.252.326 0 .624-.07.892-.208.268-.139.493-.347.675-.624l.794.503a2.318 2.318 0 01-.958.931 2.97 2.97 0 01-1.392.318zM74.004 32.616c.732 0 1.313.216 1.74.647.436.423.653 1.047.653 1.872v3.34h-1.044v-3.22c0-.562-.134-.985-.403-1.27-.268-.284-.653-.427-1.153-.427-.566 0-1.012.168-1.338.504-.327.329-.49.803-.49 1.424v2.99h-1.045V30.35h1.045v3.143c.218-.278.5-.493.849-.647.355-.153.75-.23 1.186-.23zM80.832 38.542a3.11 3.11 0 01-1.545-.384 2.82 2.82 0 01-1.077-1.05 3.08 3.08 0 01-.38-1.534c0-.57.126-1.077.38-1.522.261-.453.62-.803 1.077-1.051a3.112 3.112 0 011.545-.384c.573 0 1.085.128 1.534.384.457.248.813.598 1.067 1.05.26.446.391.953.391 1.523s-.13 1.08-.391 1.533c-.254.446-.61.796-1.067 1.051a3.05 3.05 0 01-1.534.384zm0-.92c.37 0 .7-.084.99-.252.298-.175.53-.416.697-.723a2.25 2.25 0 00.25-1.073c0-.401-.083-.756-.25-1.062a1.754 1.754 0 00-.697-.723 1.94 1.94 0 00-.99-.252c-.37 0-.703.084-1 .252-.29.168-.523.409-.697.723-.167.306-.25.66-.25 1.062 0 .401.083.76.25 1.073.174.307.406.548.696.723a2 2 0 001.001.252zM87.736 38.542a3.11 3.11 0 01-1.545-.384 2.822 2.822 0 01-1.077-1.05 3.08 3.08 0 01-.38-1.534c0-.57.126-1.077.38-1.522.261-.453.62-.803 1.077-1.051a3.112 3.112 0 011.545-.384c.573 0 1.085.128 1.534.384a2.65 2.65 0 011.067 1.05c.261.446.391.953.391 1.523s-.13 1.08-.391 1.533c-.254.446-.61.796-1.067 1.051a3.05 3.05 0 01-1.534.384zm0-.92c.37 0 .7-.084.99-.252a1.85 1.85 0 00.697-.723c.167-.314.25-.672.25-1.073 0-.401-.083-.756-.25-1.062a1.755 1.755 0 00-.697-.723 1.94 1.94 0 00-.99-.252 2 2 0 00-1 .252c-.29.168-.523.409-.697.723-.167.306-.25.66-.25 1.062 0 .401.083.76.25 1.073.174.307.406.548.696.723a2 2 0 001.001.252zM92.175 30.35h1.045v8.125h-1.044V30.35zM8.098.922H5.483v6.041H6.88V5.297h1.217c1.614 0 2.623-.837 2.623-2.183 0-1.355-1.01-2.192-2.623-2.192zM8.02 4.158H6.88V2.061h1.14c.854 0 1.286.388 1.286 1.053 0 .656-.432 1.044-1.286 1.044zM15.966 6.963h1.467l-2.7-6.041H13.35l-2.693 6.041h1.433l.535-1.294h2.805l.535 1.294zm-2.891-2.356l.958-2.313.958 2.313h-1.916zM21.67 3.813c.535-.233.871-.7.871-1.286 0-1.096-1.208-1.735-2.606-1.735-.69 0-1.415.156-2.072.492l.423 1.088a3.388 3.388 0 011.623-.432c.682 0 1.217.259 1.217.751 0 .397-.328.647-.898.647h-1.372v1.053h1.476c.63 0 1.044.225 1.044.682 0 .561-.647.854-1.441.854-.587 0-1.26-.155-1.813-.491l-.431 1c.75.432 1.605.63 2.408.63 1.45 0 2.693-.655 2.693-1.794 0-.682-.423-1.217-1.122-1.459zM26.514.922h-2.616v6.041h1.399V5.297h1.217c1.614 0 2.623-.837 2.623-2.183 0-1.355-1.01-2.192-2.623-2.192zm-.078 3.236h-1.14V2.061h1.14c.854 0 1.286.388 1.286 1.053 0 .656-.432 1.044-1.286 1.044zM34.382 6.963h1.468L33.148.922h-1.38l-2.694 6.041h1.433l.535-1.294h2.805l.535 1.294zm-2.891-2.356l.958-2.313.958 2.313h-1.916zM36.65 6.963h2.866c1.553 0 2.443-.699 2.443-1.907 0-1.157-.786-1.778-2.245-1.778H38.04V2.035h3.487V.922H36.65v6.041zm1.39-1.036V4.305h1.398c.734 0 1.105.259 1.105.794 0 .544-.388.828-1.105.828H38.04zM45.905 7.067c1.899 0 3.306-1.32 3.306-3.125 0-1.803-1.407-3.124-3.306-3.124-1.907 0-3.305 1.33-3.305 3.124 0 1.796 1.398 3.125 3.305 3.125zm0-1.191c-1.079 0-1.89-.786-1.89-1.934 0-1.147.811-1.933 1.89-1.933 1.079 0 1.89.786 1.89 1.933 0 1.148-.811 1.934-1.89 1.934zM54.82.922h-5.238V2.06h1.925v4.902h1.38V2.061h1.934V.92zM60.021 6.963h1.468L58.787.922h-1.38l-2.693 6.041h1.432l.535-1.294h2.805l.535 1.294zm-2.89-2.356l.957-2.313.958 2.313H57.13zM66.432.922v2.382h-2.744V.922H62.29v6.041h1.398V4.486h2.744v2.477h1.399V.922h-1.399zM72.227 7.067c1.899 0 3.305-1.32 3.305-3.125 0-1.803-1.406-3.124-3.305-3.124-1.907 0-3.306 1.33-3.306 3.124 0 1.796 1.398 3.125 3.306 3.125zm0-1.191c-1.079 0-1.89-.786-1.89-1.934 0-1.147.811-1.933 1.89-1.933 1.079 0 1.89.786 1.89 1.933 0 1.148-.811 1.934-1.89 1.934zM83.24 3.813c.535-.259.854-.716.854-1.33 0-1-.828-1.561-2.227-1.561h-2.813v6.041h2.977c1.528 0 2.348-.647 2.348-1.7 0-.734-.406-1.234-1.14-1.45zm-2.797-1.856h1.303c.605 0 .924.26.924.734 0 .483-.32.734-.924.734h-1.303V1.957zm1.537 3.97h-1.537V4.4h1.537c.647 0 .983.241.983.75 0 .527-.336.777-.983.777z" fill="#000"/></svg>
